blockchains/ethereum/assets/0x1c74cFF0376FB4031Cd7492cD6dB2D66c3f2c6B9/logo.svg

<svg width="250" height="250" viewBox="0 0 250 250" fill="none" xmlns="http://www.w3.org/2000/svg">
<path d="M1 125C1 56.5 56.5 1 125 1C193.5 1 249 56.5 249 125C249 193.5 193.5 249 125 249C56.5 249 1 193.5 1 125Z" fill="url(#paint0_linear_36_6062)"/>
<path d="M73.1001 12.3502C81.0001 8.7002 89.3001 5.9002 98.0001 3.9502V55.8002H73.1501V12.3502H73.1001Z" fill="white"/>
<path d="M3.80005 98.7C5.65005 90 8.45005 81.65 12.05 73.75H139.7C158.35 73.75 173.45 88.9 173.45 107.6V140.55C173.45 159.25 158.35 174.4 139.7 174.4H106.85C88.2 174.4 73.1 159.25 73.1 140.55V116.5H98V140.35C98 145.35 101.9 149.25 106.9 149.25H139.75C144.7 149.25 148.65 145.35 148.65 140.35V107.6C148.65 102.6 144.75 98.7 139.75 98.7H3.80005Z" fill="white"/>
<defs>
<linearGradient id="paint0_linear_36_6062" x1="232.88" y1="232.88" x2="34.48" y2="34.48" gradientUnits="userSpaceOnUse">
<stop offset="0.1594" stop-color="#003CDA"/>
<stop offset="1" stop-color="#33DFCC"/>
</linearGradient>
</defs>
</svg>

<svg fill="none" height="250" viewBox="0 0 250 250" width="250" xmlns="http://www.w3.org/2000/svg" xmlns:xlink="http://www.w3.org/1999/xlink"><linearGradient id="a" gradientUnits="userSpaceOnUse" x1="232.88" x2="34.48" y1="232.88" y2="34.48"><stop offset=".1594" stop-color="#003cda"/><stop offset="1" stop-color="#33dfcc"/></linearGradient><path d="m1 125c0-68.5 55.5-124 124-124s124 55.5 124 124-55.5 124-124 124-124-55.5-124-124z" fill="url(#a)"/><g fill="#fff"><path d="m73.1001 12.3502c7.9-3.65 16.2-6.45 24.9-8.4v51.85h-24.85v-43.45z"/><path d="m3.80005 98.7c1.85-8.7 4.65-17.05 8.24995-24.95h127.65c18.65 0 33.75 15.15 33.75 33.85v32.95c0 18.7-15.1 33.85-33.75 33.85h-32.85c-18.65 0-33.75-15.15-33.75-33.85v-24.05h24.9v23.85c0 5 3.9 8.9 8.9 8.9h32.85c4.95 0 8.9-3.9 8.9-8.9v-32.75c0-5-3.9-8.9-8.9-8.9z"/></g></svg>
